X: 24547
T: Lukey's Boat
R: polka
M: 2/4
K: Fmajor
C|F3G|AB GE|F4|z3C|
|:FFFG|AB GE|F3D|C3A|
cA Bc|BG C3/2B/|AF GA|FD CC|
F3G|AB GE|F4|1 z3C:|2 F4|z4||

